X: 499
T:Anach Cuain
M:6/8
L:1/8
S:Bernard Flaherty: Trip to Sligo
R:Double Jig
N:From the playing of Colm O'Donnell
N: F:http://home.istar.ca/~rickerc/tunes/net3.abc
N:Posted to the woodenflute mailing list March 2002
K:D
A|BEFG2E|FED def|edB BAF|AFE FED|BEFG2E|
FED def|edB BAF|AFE E2::A|Bee efe|dBcd2f|
edB BAF|AFE FED|1Bee efe|dBcd2f|edB BAF|
AFEE2:|2BEFG2E|FED def|edBBAF|AFE E2||

